X: 6
T:Cliff Hornpipe. FTB.020
T:Ruby Hornpipe. FTB.020
S:ChristopherGeorge Partington" <ChrisTheFiddlerPartington@Hotmail.com> tradtunes 2005-7-12
M:4/4
Q:180
S:Fiddler's Tune Book 1, pub.EFDSS.1952
R:Hornpipe
O:England
Z:vmp.efdss.Chris Partington
K:D
(AF)|DFAF EGBA|FAde fdAF|GBed cegf|\
((3efe) ((3dcB) ((3ABA) ((3GFE) |!
DFAF EGBA|FAde fdAF|GBed cABc|d2f2d2:|!
|:(cd)|ecAce2e2|fdAdf2f2|gefd edcd|\
((3efe) ((3dcB) ((3ABA) ((3GFE) |!
DFAF EGBA|FAde fdAF|GBed cABc|d2f2d2:|]
